src/assets/svg/icons/fa/nuevos/classic/thin/list-timeline classic thin.svg

<svg xmlns="http://www.w3.org/2000/svg" viewBox="0 0 512 512"><!--! Font Awesome Pro 6.4.0 by @fontawesome - https://fontawesome.com License - https://fontawesome.com/license (Commercial License) Copyright 2023 Fonticons, Inc. --><path d="M158.6 96l43.3 43.3c3 3 7.1 4.7 11.3 4.7H416c8.8 0 16-7.2 16-16V64c0-8.8-7.2-16-16-16H213.3c-4.2 0-8.3 1.7-11.3 4.7L158.6 96zm32-54.6c6-6 14.1-9.4 22.6-9.4H416c17.7 0 32 14.3 32 32v64c0 17.7-14.3 32-32 32H213.3c-8.5 0-16.6-3.4-22.6-9.4l-43.3-43.3c-6.2-6.2-6.2-16.4 0-22.6l43.3-43.3zM96 96A32 32 0 1 0 32 96a32 32 0 1 0 64 0zM16 96a48 48 0 1 1 96 0A48 48 0 1 1 16 96zM96 256a32 32 0 1 0 -64 0 32 32 0 1 0 64 0zm-80 0a48 48 0 1 1 96 0 48 48 0 1 1 -96 0zM64 384a32 32 0 1 0 0 64 32 32 0 1 0 0-64zm0 80a48 48 0 1 1 0-96 48 48 0 1 1 0 96zm94.6-48l43.3 43.3c3 3 7.1 4.7 11.3 4.7H416c8.8 0 16-7.2 16-16V384c0-8.8-7.2-16-16-16H213.3c-4.2 0-8.3 1.7-11.3 4.7L158.6 416zm32-54.6c6-6 14.1-9.4 22.6-9.4H416c17.7 0 32 14.3 32 32v64c0 17.7-14.3 32-32 32H213.3c-8.5 0-16.6-3.4-22.6-9.4l-43.3-43.3c-6.2-6.2-6.2-16.4 0-22.6l43.3-43.3zm11.3-148.7L158.6 256l43.3 43.3c3 3 7.1 4.7 11.3 4.7H480c8.8 0 16-7.2 16-16V224c0-8.8-7.2-16-16-16H213.3c-4.2 0-8.3 1.7-11.3 4.7zm-54.6 32l43.3-43.3c6-6 14.1-9.4 22.6-9.4H480c17.7 0 32 14.3 32 32v64c0 17.7-14.3 32-32 32H213.3c-8.5 0-16.6-3.4-22.6-9.4l-43.3-43.3c-6.2-6.2-6.2-16.4 0-22.6z"/></svg>

<svg xmlns="http://www.w3.org/2000/svg" viewBox="0 0 512 512"><path d="M213.3 32H416C433.7 32 448 46.33 448 64V128C448 145.7 433.7 160 416 160H213.3C204.8 160 196.6 156.6 190.6 150.6L147.3 107.3C141.1 101.1 141.1 90.94 147.3 84.69L190.6 41.37C196.6 35.37 204.8 32 213.3 32V32zM201.9 139.3C204.9 142.3 209 144 213.3 144H416C424.8 144 432 136.8 432 128V64C432 55.16 424.8 48 416 48H213.3C209 48 204.9 49.69 201.9 52.69L158.6 96L201.9 139.3zM64 144C37.49 144 16 122.5 16 96C16 69.49 37.49 48 64 48C90.51 48 112 69.49 112 96C112 122.5 90.51 144 64 144zM96 96C96 78.33 81.67 64 64 64C46.33 64 32 78.33 32 96C32 113.7 46.33 128 64 128C81.67 128 96 113.7 96 96zM64 304C37.49 304 16 282.5 16 256C16 229.5 37.49 208 64 208C90.51 208 112 229.5 112 256C112 282.5 90.51 304 64 304zM96 256C96 238.3 81.67 224 64 224C46.33 224 32 238.3 32 256C32 273.7 46.33 288 64 288C81.67 288 96 273.7 96 256zM64 368C90.51 368 112 389.5 112 416C112 442.5 90.51 464 64 464C37.49 464 16 442.5 16 416C16 389.5 37.49 368 64 368zM32 416C32 433.7 46.33 448 64 448C81.67 448 96 433.7 96 416C96 398.3 81.67 384 64 384C46.33 384 32 398.3 32 416zM213.3 352H416C433.7 352 448 366.3 448 384V448C448 465.7 433.7 480 416 480H213.3C204.8 480 196.6 476.6 190.6 470.6L147.3 427.3C141.1 421.1 141.1 410.9 147.3 404.7L190.6 361.4C196.6 355.4 204.8 352 213.3 352V352zM201.9 459.3C204.9 462.3 209 464 213.3 464H416C424.8 464 432 456.8 432 448V384C432 375.2 424.8 368 416 368H213.3C209 368 204.9 369.7 201.9 372.7L158.6 416L201.9 459.3zM147.3 244.7L190.6 201.4C196.6 195.4 204.8 192 213.3 192H480C497.7 192 512 206.3 512 224V288C512 305.7 497.7 320 480 320H213.3C204.8 320 196.6 316.6 190.6 310.6L147.3 267.3C141.1 261.1 141.1 250.9 147.3 244.7V244.7zM201.9 212.7L158.6 256L201.9 299.3C204.9 302.3 209 304 213.3 304H480C488.8 304 496 296.8 496 288V224C496 215.2 488.8 208 480 208H213.3C209 208 204.9 209.7 201.9 212.7z"/></svg>
